packages/react/src/components/base/Icon/assets/icon-user-gear.svg

<svg width="24" height="24" viewBox="0 0 24 24" xmlns="http://www.w3.org/2000/svg" fill="currentColor"> <g clip-path="url(#clip0_2077_3002)"> <path d="M13.602 15.4285C14.7054 14.561 15.5109 13.3711 15.9065 12.0244C16.302 10.6777 16.268 9.2412 15.809 7.91478C15.35 6.58836 14.489 5.43801 13.3457 4.62381C12.2024 3.80961 10.8337 3.37207 9.43009 3.37207C8.0265 3.37207 6.65782 3.80961 5.51452 4.62381C4.37122 5.43801 3.51017 6.58836 3.05119 7.91478C2.59221 9.2412 2.55813 10.6777 2.9537 12.0244C3.34927 13.3711 4.1548 14.561 5.25821 15.4285C3.48364 16.1523 1.91555 17.3037 0.693524 18.78C0.501574 19.0085 0.408256 19.3039 0.434101 19.6012C0.459946 19.8985 0.602836 20.1734 0.831337 20.3654C1.05984 20.5573 1.35523 20.6506 1.65253 20.6248C1.94984 20.5989 2.2247 20.456 2.41665 20.2275C4.23071 18.0685 6.72165 16.8788 9.43009 16.8788C12.8988 16.8788 15.1601 18.6994 16.4435 20.2275C16.6355 20.456 16.9103 20.5989 17.2076 20.6248C17.5049 20.6506 17.8003 20.5573 18.0288 20.3654C18.2573 20.1734 18.4002 19.8985 18.4261 19.6012C18.4519 19.3039 18.3586 19.0085 18.1667 18.78C16.9446 17.3037 15.3765 16.1523 13.602 15.4285ZM4.93009 10.1288C4.93009 9.23877 5.19401 8.36874 5.68847 7.62872C6.18294 6.8887 6.88574 6.31193 7.70801 5.97133C8.53028 5.63074 9.43508 5.54162 10.308 5.71526C11.1809 5.88889 11.9827 6.31747 12.6121 6.94681C13.2414 7.57615 13.67 8.37797 13.8436 9.25088C14.0173 10.1238 13.9281 11.0286 13.5875 11.8509C13.247 12.6731 12.6702 13.3759 11.9302 13.8704C11.1901 14.3649 10.3201 14.6288 9.43009 14.6288C8.23699 14.6275 7.09312 14.153 6.24948 13.3094C5.40583 12.4658 4.93133 11.3219 4.93009 10.1288ZM22.7923 13.8788L22.1257 14.0954L22.5373 14.6625C22.6271 14.7818 22.6922 14.9178 22.7289 15.0625C22.7656 15.2073 22.7732 15.3579 22.7511 15.5055C22.729 15.6532 22.6777 15.795 22.6003 15.9227C22.5228 16.0503 22.4207 16.1613 22.2999 16.2491C22.1792 16.3369 22.0421 16.3997 21.8968 16.434C21.7515 16.4683 21.6008 16.4733 21.4535 16.4488C21.3062 16.4242 21.1653 16.3706 21.039 16.2911C20.9126 16.2115 20.8034 16.1076 20.7176 15.9854L20.3051 15.4172L19.8926 15.9854C19.8068 16.1076 19.6976 16.2115 19.5712 16.2911C19.4449 16.3706 19.304 16.4242 19.1567 16.4488C19.0094 16.4733 18.8587 16.4683 18.7134 16.434C18.568 16.3997 18.431 16.3369 18.3102 16.2491C18.1895 16.1613 18.0874 16.0503 18.0099 15.9227C17.9325 15.795 17.8812 15.6532 17.8591 15.5055C17.837 15.3579 17.8445 15.2073 17.8812 15.0625C17.918 14.9178 17.9831 14.7818 18.0729 14.6625L18.4845 14.0954L17.8179 13.8788C17.6774 13.8332 17.5472 13.7603 17.4348 13.6644C17.3224 13.5685 17.23 13.4514 17.1629 13.3197C17.0958 13.1881 17.0553 13.0446 17.0436 12.8973C17.032 12.75 17.0495 12.6018 17.0951 12.4613C17.1407 12.3208 17.2135 12.1906 17.3095 12.0782C17.4054 11.9658 17.5225 11.8734 17.6541 11.8063C17.7858 11.7392 17.9293 11.6987 18.0766 11.687C18.2239 11.6754 18.3721 11.6929 18.5126 11.7385L19.1801 11.955V11.2538C19.1801 10.9554 19.2986 10.6693 19.5096 10.4583C19.7206 10.2473 20.0067 10.1288 20.3051 10.1288C20.6035 10.1288 20.8896 10.2473 21.1006 10.4583C21.3116 10.6693 21.4301 10.9554 21.4301 11.2538V11.955L22.0976 11.7385C22.2381 11.6929 22.3863 11.6754 22.5336 11.687C22.6809 11.6987 22.8244 11.7392 22.956 11.8063C23.0877 11.8734 23.2048 11.9658 23.3007 12.0782C23.3966 12.1906 23.4695 12.3208 23.5151 12.4613C23.5607 12.6018 23.5782 12.75 23.5665 12.8973C23.5549 13.0446 23.5144 13.1881 23.4473 13.3197C23.3801 13.4514 23.2877 13.5685 23.1754 13.6644C23.063 13.7603 22.9328 13.8332 22.7923 13.8788Z"/> </g> <defs> <clipPath id="clip0_2077_3002"> <rect width="24" height="24"/> </clipPath> </defs> </svg>

<svg viewBox="0 0 24 24" xmlns="http://www.w3.org/2000/svg" aria-hidden="true" fill="currentColor"><g clip-path="url(#a)"><path d="M13.602 15.429a6.75 6.75 0 1 0-8.344 0A11.6 11.6 0 0 0 .694 18.78a1.125 1.125 0 0 0 1.723 1.447C4.23 18.07 6.722 16.88 9.43 16.88c3.469 0 5.73 1.82 7.014 3.348a1.126 1.126 0 0 0 1.723-1.447 11.6 11.6 0 0 0-4.565-3.352m-8.672-5.3a4.5 4.5 0 1 1 9 0 4.5 4.5 0 0 1-9 0m17.862 3.75-.666.216.411.567a1.125 1.125 0 1 1-1.82 1.323l-.412-.568-.412.568a1.125 1.125 0 1 1-1.82-1.322l.412-.568-.667-.216a1.126 1.126 0 0 1 .695-2.14l.667.216v-.701a1.125 1.125 0 1 1 2.25 0v.701l.668-.216a1.126 1.126 0 0 1 .694 2.14"/></g><defs><clipPath id="a"><path d="M0 0h24v24H0z"/></clipPath></defs></svg>
